X:6172
T:Sonny Martin's
O:england
R:reel
M:C|
K:G
G2DG EGDE|G2BG AGEG|A2EA FAEG|ABcd edBA|
G2DG EGDE|G2BG AGEG|cBcd efge|1 dBAB G3D:|2 dBAB G3d||
|:g2dg egde|g2bg ageg|a2ea faeg|a2bg agef|
g2dg egde|g2bg aged|cBcd efge|1 dBAB G3d:|2 dBAB G3D||
